X:6
T:North Jig
C:\251 Gary Wikfors; transcribed by Willow Sirch
M:6/8
L:1/8
K:G
"intro (1st time only)"FGA DEF|GDB, A,B,A,|:G,2B, D2G|B3-BAG|FGA DEF|
GDB, A,B,A,|G,2B, D2G|B3-BAG|FGA DEF|1G3-GB,A,:|2G3-GGF|]
E2F G2A|BGc BGE|D2E F2G|AFB AFD|
E2F G2A|BGc BGE| FGA DEF|1E3-EGF:|2GDB, A,B,A,|]
